src/icons/task-attention.svg

<svg height="32" viewBox="0 0 32 32" width="32" xmlns="http://www.w3.org/2000/svg"><path d="m15.993709 2c-1.277876 0-2.283777 1.1966797-2.283777 2.6044918v14.3247072c0 1.407812 1.004406 2.60791 2.283777 2.60791 1.27937 0 2.286918-1.200098 2.286918-2.60791v-14.3247072c0-1.4078121-1.009044-2.6044918-2.286918-2.6044918zm.0063 21.475097c-.802259 0-1.557265.337509-2.123567.953613-.565275.61505-.876442 1.431978-.876442 2.30713 0 .875182.310197 1.694384.876442 2.310546.566309.616191 1.321342.953614 2.123549.953614.802257 0 1.557267-.337509 2.123566-.953614.566328-.61619.876443-1.435421.876443-2.310546 0-.87521-.31127-1.69211-.876443-2.30713-.566326-.61619-1.321337-.953617-2.123566-.953613z" fill="#f25022" stroke-width="1.677697"/></svg>

<?xml version="1.0" encoding="UTF-8" standalone="no"?>
<svg
   xmlns:dc="http://purl.org/dc/elements/1.1/"
   xmlns:cc="http://creativecommons.org/ns#"
   xmlns:rdf="http://www.w3.org/1999/02/22-rdf-syntax-ns#"
   xmlns:svg="http://www.w3.org/2000/svg"
   xmlns="http://www.w3.org/2000/svg"
   xmlns:sodipodi="http://sodipodi.sourceforge.net/DTD/sodipodi-0.dtd"
   xmlns:inkscape="http://www.inkscape.org/namespaces/inkscape"
   viewBox="0 0 32 32"
   version="1.1"
   id="svg4"
   sodipodi:docname="task-attention.svg"
   width="32"
   height="32"
   inkscape:version="0.92.4 5da689c313, 2019-01-14">
  <metadata
     id="metadata10">
    <rdf:RDF>
      <cc:Work
         rdf:about="">
        <dc:format>image/svg+xml</dc:format>
        <dc:type
           rdf:resource="http://purl.org/dc/dcmitype/StillImage" />
        <dc:title />
      </cc:Work>
    </rdf:RDF>
  </metadata>
  <defs
     id="defs8" />
  <sodipodi:namedview
     pagecolor="#ffffff"
     bordercolor="#666666"
     borderopacity="1"
     objecttolerance="10"
     gridtolerance="10"
     guidetolerance="10"
     inkscape:pageopacity="0"
     inkscape:pageshadow="2"
     inkscape:window-width="1366"
     inkscape:window-height="703"
     id="namedview6"
     showgrid="false"
     inkscape:zoom="10.727273"
     inkscape:cx="-6.7118639"
     inkscape:cy="18.457627"
     inkscape:window-x="0"
     inkscape:window-y="0"
     inkscape:window-maximized="1"
     inkscape:current-layer="svg4" />
  <path
     d="M 15.993709,2 C 14.715833,2 13.709932,3.1966797 13.709932,4.6044918 V 18.929199 c 0,1.407812 1.004406,2.60791 2.283777,2.60791 1.27937,0 2.286918,-1.200098 2.286918,-2.60791 V 4.6044918 C 18.280627,3.1966797 17.271583,2 15.993709,2 Z m 0.0063,21.475097 c -0.802259,0 -1.557265,0.337509 -2.123567,0.953613 C 13.311167,25.04376 13,25.860688 13,26.73584 c 0,0.875182 0.310197,1.694384 0.876442,2.310546 C 14.442751,29.662577 15.197784,30 15.999991,30 16.802248,30 17.557258,29.662491 18.123557,29.046386 18.689885,28.430196 19,27.610965 19,26.73584 19,25.86063 18.68873,25.04373 18.123557,24.42871 17.557231,23.81252 16.80222,23.475093 15.999991,23.475097 Z"
     id="path2"
     inkscape:connector-curvature="0"
     style="fill:#f25022;stroke-width:1.67769742;fill-opacity:1" />
</svg>
